src/icons/svg/ViewGrid.svg

<!-- Generated by IcoMoon.io -->
<svg version="1.1" xmlns="http://www.w3.org/2000/svg" width="24" height="24" viewBox="0 0 24 24">
<title>view-grid</title>
<path fill="#444" d="M9 13.502h-6c-0.828 0-1.5 0.67-1.5 1.5v6c0 0.828 0.672 1.5 1.5 1.5h6c0.828 0 1.5-0.672 1.5-1.5v-6c0-0.83-0.672-1.5-1.5-1.5zM9 20.252c0 0.414-0.336 0.75-0.75 0.75h-4.5c-0.414 0-0.75-0.336-0.75-0.75v-4.5c0-0.414 0.336-0.75 0.75-0.75h4.5c0.414 0 0.75 0.336 0.75 0.75v4.5zM9 1.5h-6c-0.828 0-1.5 0.672-1.5 1.502v6c0 0.828 0.672 1.5 1.5 1.5h6c0.828 0 1.5-0.672 1.5-1.5v-6c0-0.829-0.672-1.501-1.5-1.501zM9 8.252c0 0.413-0.336 0.75-0.75 0.75h-4.5c-0.414 0-0.75-0.337-0.75-0.75v-4.501c0-0.413 0.336-0.749 0.75-0.749h4.5c0.414 0 0.75 0.336 0.75 0.749v4.501zM21 1.5h-6c-0.83 0-1.5 0.672-1.5 1.502v6c0 0.828 0.672 1.5 1.5 1.5h6c0.83 0 1.5-0.672 1.5-1.5v-6c0-0.829-0.67-1.501-1.5-1.501zM21 8.252c0 0.413-0.337 0.75-0.75 0.75h-4.5c-0.413 0-0.75-0.337-0.75-0.75v-4.501c0-0.413 0.337-0.749 0.75-0.749h4.5c0.413 0 0.75 0.336 0.75 0.749v4.501zM21 13.502h-6c-0.83 0-1.5 0.67-1.5 1.5v6c0 0.828 0.672 1.5 1.5 1.5h6c0.83 0 1.5-0.672 1.5-1.5v-6c0-0.83-0.67-1.5-1.5-1.5zM21 20.252c0 0.414-0.337 0.75-0.75 0.75h-4.5c-0.413 0-0.75-0.336-0.75-0.75v-4.5c0-0.414 0.337-0.75 0.75-0.75h4.5c0.413 0 0.75 0.336 0.75 0.75v4.5z"></path>
</svg>

<svg width="24" height="24" viewBox="0 0 24 24" fill="none" xmlns="http://www.w3.org/2000/svg">
<path d="M9 13.502H3C2.172 13.502 1.5 14.172 1.5 15.002V21.002C1.5 21.83 2.172 22.502 3 22.502H9C9.828 22.502 10.5 21.83 10.5 21.002V15.002C10.5 14.172 9.828 13.502 9 13.502V13.502ZM9 20.252C9 20.666 8.664 21.002 8.25 21.002H3.75C3.336 21.002 3 20.666 3 20.252V15.752C3 15.338 3.336 15.002 3.75 15.002H8.25C8.664 15.002 9 15.338 9 15.752V20.252ZM9 1.5H3C2.172 1.5 1.5 2.172 1.5 3.002V9.002C1.5 9.83 2.172 10.502 3 10.502H9C9.828 10.502 10.5 9.83 10.5 9.002V3.002C10.5 2.173 9.828 1.501 9 1.501V1.5ZM9 8.252C9 8.665 8.664 9.002 8.25 9.002H3.75C3.336 9.002 3 8.665 3 8.252V3.751C3 3.338 3.336 3.002 3.75 3.002H8.25C8.664 3.002 9 3.338 9 3.751V8.252ZM21 1.5H15C14.17 1.5 13.5 2.172 13.5 3.002V9.002C13.5 9.83 14.172 10.502 15 10.502H21C21.83 10.502 22.5 9.83 22.5 9.002V3.002C22.5 2.173 21.83 1.501 21 1.501V1.5ZM21 8.252C21 8.665 20.663 9.002 20.25 9.002H15.75C15.337 9.002 15 8.665 15 8.252V3.751C15 3.338 15.337 3.002 15.75 3.002H20.25C20.663 3.002 21 3.338 21 3.751V8.252ZM21 13.502H15C14.17 13.502 13.5 14.172 13.5 15.002V21.002C13.5 21.83 14.172 22.502 15 22.502H21C21.83 22.502 22.5 21.83 22.5 21.002V15.002C22.5 14.172 21.83 13.502 21 13.502V13.502ZM21 20.252C21 20.666 20.663 21.002 20.25 21.002H15.75C15.337 21.002 15 20.666 15 20.252V15.752C15 15.338 15.337 15.002 15.75 15.002H20.25C20.663 15.002 21 15.338 21 15.752V20.252Z" fill="#1C2125"/>
</svg>
